Newaita-dark/apps/32/gnome-nibbles.svg

<svg height="32" viewBox="0 0 32 32" width="32" xmlns="http://www.w3.org/2000/svg" xmlns:xlink="http://www.w3.org/1999/xlink"><linearGradient id="a" gradientUnits="userSpaceOnUse" x1="15.87652" x2="15.87652" y1="28.033936" y2="29.35698000003"><stop offset="0" stop-opacity=".27451"/><stop offset="1" stop-opacity="0"/></linearGradient><linearGradient id="b"><stop offset="0" stop-opacity=".313726"/><stop offset=".222222" stop-opacity=".27451"/><stop offset="1" stop-opacity="0"/></linearGradient><radialGradient id="c" cx="450.908936" cy="189.579361" gradientTransform="matrix(.00000017 -.0781325 -.140638 -.0000001 52.130648 63.595333)" gradientUnits="userSpaceOnUse" r="21.166656" xlink:href="#b"/><radialGradient id="d" cx="450.908936" cy="189.579361" gradientTransform="matrix(-.00000017 .0781325 .140638 .0000001 -20.377613 -7.527479)" gradientUnits="userSpaceOnUse" r="21.166656" xlink:href="#b"/><radialGradient id="e" cx="450.908936" cy="189.579361" gradientTransform="matrix(-.00000017 -.0781325 .140638 -.0000001 -20.377613 63.595333)" gradientUnits="userSpaceOnUse" r="21.166656" xlink:href="#b"/><radialGradient id="f" cx="450.908936" cy="189.579361" gradientTransform="matrix(.00000017 .0781325 -.140638 .0000001 52.130646 -7.527479)" gradientUnits="userSpaceOnUse" r="21.166656" xlink:href="#b"/><linearGradient id="g" gradientUnits="userSpaceOnUse" x1="10.58434899997" x2="10.58434899997" y1="28.033934" y2="2.89610500006"><stop offset="0" stop-color="#424242"/><stop offset="1" stop-color="#616161"/></linearGradient><linearGradient id="h" gradientUnits="userSpaceOnUse" x1="9.59204" x2="9.59204" y1="21.41866419623" y2="19.10334419623"><stop offset="0" stop-color="#ef5350"/><stop offset="1" stop-color="#e57373"/></linearGradient><path d="m5.953125 27.9375h19.847656v1.46875h-19.847656zm0 0" fill="url(#a)"/><path d="m25.800781 28.035156h2.644531v-1.324218h-2.644531zm0 0" fill="url(#c)"/><path d="m5.953125 28.035156h-2.644531v1.320313h2.644531zm0 0" fill="url(#d)"/><path d="m5.953125 28.035156h-2.644531v-1.324218h2.644531zm0 0" fill="url(#e)"/><path d="m25.800781 28.035156h2.644531v1.320313h-2.644531zm0 0" fill="url(#f)"/><path d="m4.628906 2.894531h22.492188c.730468 0 1.324218.59375 1.324218 1.324219v22.492188c0 .730468-.59375 1.324218-1.324218 1.324218h-22.492188c-.730468 0-1.320312-.59375-1.320312-1.324218v-22.492188c0-.730469.589844-1.324219 1.320312-1.324219zm0 0" fill="url(#g)"/><path d="m4.628906 2.894531c-.730468 0-1.320312.589844-1.320312 1.324219v.164062c0-.730468.589844-1.324218 1.320312-1.320312h22.492188c.734375-.003906 1.324218.589844 1.324218 1.320312v-.164062c0-.734375-.589843-1.324219-1.324218-1.324219zm0 0" fill="#e6e6e6" fill-opacity=".392157"/><path d="m4.628906 28.035156c-.730468 0-1.320312-.589844-1.320312-1.324218v-.164063c0 .730469.589844 1.320313 1.320312 1.320313h22.492188c.734375 0 1.324218-.589844 1.324218-1.320313v.164063c0 .734374-.589843 1.324218-1.324218 1.324218zm0 0" fill-opacity=".196078"/><path d="m74.055428-168.691922h359.840637c11.686384 0 21.185477 9.499093 21.185477 21.185477v359.840637c0 11.686384-9.499093 21.185477-21.185477 21.185477h-359.840637c-11.686384 0-21.122983-9.499093-21.122983-21.185477v-359.840637c0-11.686384 9.436599-21.185477 21.122983-21.185477zm0 0" fill="none" stroke="#212121" stroke-linecap="round" stroke-width="3" transform="matrix(.062506 0 0 .062506 0 13.438783)"/><path d="m9.59375 8.519531c-.367188 0-.664062.292969-.664062.660157v6.285156c0 .367187.296874.660156.664062.660156.363281 0 .660156-.292969.660156-.660156v-5.621094h4.960938v10.914062c0 .367188.257812.660157.578125.660157h6.367187c.367188 0 .664063-.292969.664063-.660157 0-.367187-.296875-.664062-.664063-.664062h-5.621094v-10.914062c0-.367188-.257812-.660157-.582031-.660157zm0 0" fill="#81c784"/><path d="m8.929688 19.101562c-.367188 0-.660157.296876-.660157.664063v.992187c0 .367188.292969.660157.660157.660157h1.324218c.367188 0 .660156-.292969.660156-.660157v-.992187c0-.367187-.292968-.664063-.660156-.664063h-.332031v.332032c0 .183594-.148437.332031-.328125.332031-.183594 0-.332031-.148437-.332031-.332031v-.332032zm0 0" fill="url(#h)"/><path d="m9.59375 18.277344c.273438 0 .496094.222656.496094.496094v.496093c0 .273438-.222656.496094-.496094.496094-.277344 0-.496094-.222656-.496094-.496094v-.496093c0-.273438.21875-.496094.496094-.496094zm0 0" fill="#689f38" fill-opacity=".995816"/><path d="m9.59375 18.277344c-.277344 0-.496094.21875-.496094.496094v.328124c0-.273437.21875-.496093.496094-.496093.273438 0 .496094.222656.496094.496093v-.328124c0-.277344-.222656-.496094-.496094-.496094zm0 0" fill="#fff" fill-opacity=".392157"/><path d="m9.59375 8.519531c-.367188 0-.664062.292969-.664062.660157v.332031c0-.367188.296874-.660157.664062-.660157h6.363281c.324219 0 .582031.292969.582031.660157v-.332031c0-.367188-.257812-.660157-.582031-.660157zm6.945312 11.574219v.332031h5.621094c.308594 0 .570313.210938.640625.496094.015625-.050781.023438-.109375.023438-.164063 0-.367187-.296875-.664062-.664063-.664062zm0 0" fill="#fff" fill-opacity=".392157"/><path d="m10.253906 9.84375v.496094h4.960938v-.496094zm-1.324218 5.621094v.496094c0 .367187.296874.660156.664062.660156.363281 0 .660156-.292969.660156-.660156v-.496094c0 .367187-.296875.660156-.660156.660156-.367188 0-.664062-.292969-.664062-.660156zm6.285156 5.292968v.496094c0 .367188.257812.660156.578125.660156h6.367187c.367188 0 .664063-.292968.664063-.660156 0-.089844-.019531-.171875-.050781-.25-.097657.246094-.332032.414063-.613282.414063h-6.367187c-.320313 0-.578125-.292969-.578125-.660157zm0 0" fill-opacity=".235294"/><path d="m153.485343-78.700516c-5.874439 0-10.623986 4.687052-10.623986 10.561491v100.552898c0 5.874439 4.749547 10.561492 10.623986 10.561492 5.811945 0 10.561491-4.687053 10.561491-10.561492v-89.928912h79.367421v174.608326c0 5.874439 4.124606 10.561491 9.249117 10.561491h101.865272c5.874439 0 10.623986-4.687052 10.623986-10.561491s-4.749547-10.623986-10.623986-10.623986h-89.928912v-174.608326c0-5.874439-4.124606-10.561491-9.311611-10.561491zm0 0" fill="none" stroke="#212121" stroke-linecap="square" stroke-linejoin="bevel" stroke-width="3" transform="matrix(.062506 0 0 .062506 0 13.438783)"/><path d="m8.929688 19.101562c-.367188 0-.660157.296876-.660157.664063v.328125c0-.363281.292969-.660156.660157-.660156h.332031v-.332032zm.992187 0v.332032h.332031c.367188 0 .660156.296875.660156.660156v-.328125c0-.367187-.292968-.664063-.660156-.664063zm-.660156.332032v.332031c0 .183594.148437.328125.332031.328125.179688 0 .328125-.144531.328125-.328125v-.332031c0 .183594-.148437.332031-.328125.332031-.183594 0-.332031-.148437-.332031-.332031zm0 0" fill="#fff" fill-opacity=".392157"/><path d="m8.269531 20.757812v.496094c0 .367188.292969.660156.660157.660156h1.324218c.367188 0 .660156-.292968.660156-.660156v-.496094c0 .367188-.292968.660157-.660156.660157h-1.324218c-.367188 0-.660157-.292969-.660157-.660157zm0 0" fill-opacity=".235294"/><g stroke="#212121" stroke-linecap="square" stroke-linejoin="bevel"><path d="m539.948466 1155.007873c-22.202605 0-39.91745 17.951043-39.91745 40.153648v59.994274c0 22.202605 17.714845 39.91745 39.91745 39.91745h80.071098c22.202605 0 39.91745-17.714845 39.91745-39.91745v-59.994274c0-22.202605-17.714845-40.153648-39.91745-40.153648h-20.076824v20.076824c0 11.101303-8.975521 20.076824-19.840626 20.076824-11.101303 0-20.076824-8.975521-20.076824-20.076824v-20.076824zm0 0" fill="none" stroke-width="11.338583" transform="scale(.016538)"/><path d="m153.485343 77.409576c4.374582 0 7.936742 3.56216 7.936742 7.936742v7.936742c0 4.374583-3.56216 7.936743-7.936742 7.936743-4.437076 0-7.936742-3.56216-7.936742-7.936743v-7.936742c0-4.374582 3.499666-7.936742 7.936742-7.936742zm0 0" fill="#689f38" fill-opacity=".995816" stroke-width="3" transform="matrix(.062506 0 0 .062506 0 13.438783)"/></g></svg>

<?xml version="1.0" encoding="UTF-8"?>
<svg xmlns="http://www.w3.org/2000/svg" xmlns:xlink="http://www.w3.org/1999/xlink" width="32px" height="32px" viewBox="0 0 32 32" version="1.1">
<defs>
<linearGradient id="linear0" gradientUnits="userSpaceOnUse" x1="254" y1="233.5" x2="254" y2="254.666672" gradientTransform="matrix(0.062506,0,0,0.062506,-0.00000381506,13.438785)">
<stop offset="0" style="stop-color:rgb(0%,0%,0%);stop-opacity:0.27451;"/>
<stop offset="1" style="stop-color:rgb(0%,0%,0%);stop-opacity:0;"/>
</linearGradient>
<radialGradient id="radial0" gradientUnits="userSpaceOnUse" cx="450.908936" cy="189.579361" fx="450.908936" fy="189.579361" r="21.166656" gradientTransform="matrix(0.00000017417,-0.0781325,-0.140638,-0.000000101539,52.130648,63.595333)">
<stop offset="0" style="stop-color:rgb(0%,0%,0%);stop-opacity:0.313726;"/>
<stop offset="0.222222" style="stop-color:rgb(0%,0%,0%);stop-opacity:0.27451;"/>
<stop offset="1" style="stop-color:rgb(0%,0%,0%);stop-opacity:0;"/>
</radialGradient>
<radialGradient id="radial1" gradientUnits="userSpaceOnUse" cx="450.908936" cy="189.579361" fx="450.908936" fy="189.579361" r="21.166656" gradientTransform="matrix(-0.00000017417,0.0781325,0.140638,0.000000101539,-20.377613,-7.527479)">
<stop offset="0" style="stop-color:rgb(0%,0%,0%);stop-opacity:0.313726;"/>
<stop offset="0.222222" style="stop-color:rgb(0%,0%,0%);stop-opacity:0.27451;"/>
<stop offset="1" style="stop-color:rgb(0%,0%,0%);stop-opacity:0;"/>
</radialGradient>
<radialGradient id="radial2" gradientUnits="userSpaceOnUse" cx="450.908936" cy="189.579361" fx="450.908936" fy="189.579361" r="21.166656" gradientTransform="matrix(-0.00000017417,-0.0781325,0.140638,-0.000000101539,-20.377613,63.595333)">
<stop offset="0" style="stop-color:rgb(0%,0%,0%);stop-opacity:0.313726;"/>
<stop offset="0.222222" style="stop-color:rgb(0%,0%,0%);stop-opacity:0.27451;"/>
<stop offset="1" style="stop-color:rgb(0%,0%,0%);stop-opacity:0;"/>
</radialGradient>
<radialGradient id="radial3" gradientUnits="userSpaceOnUse" cx="450.908936" cy="189.579361" fx="450.908936" fy="189.579361" r="21.166656" gradientTransform="matrix(0.00000017417,0.0781325,-0.140638,0.000000101539,52.130646,-7.527479)">
<stop offset="0" style="stop-color:rgb(0%,0%,0%);stop-opacity:0.313726;"/>
<stop offset="0.222222" style="stop-color:rgb(0%,0%,0%);stop-opacity:0.27451;"/>
<stop offset="1" style="stop-color:rgb(0%,0%,0%);stop-opacity:0;"/>
</radialGradient>
<linearGradient id="linear1" gradientUnits="userSpaceOnUse" x1="169.333328" y1="233.5" x2="169.333328" y2="-168.666656" gradientTransform="matrix(0.062506,0,0,0.062506,0,13.438783)">
<stop offset="0" style="stop-color:rgb(25.882354%,25.882354%,25.882354%);stop-opacity:1;"/>
<stop offset="1" style="stop-color:rgb(38.039216%,38.039216%,38.039216%);stop-opacity:1;"/>
</linearGradient>
<linearGradient id="linear2" gradientUnits="userSpaceOnUse" x1="580" y1="1295.118164" x2="580" y2="1155.118164" gradientTransform="matrix(0.016538,0,0,0.016538,0,0)">
<stop offset="0" style="stop-color:rgb(93.725491%,32.549021%,31.37255%);stop-opacity:1;"/>
<stop offset="1" style="stop-color:rgb(89.803922%,45.09804%,45.09804%);stop-opacity:1;"/>
</linearGradient>
</defs>
<g id="surface1">
<path style=" stroke:none;fill-rule:nonzero;fill:url(#linear0);" d="M 5.953125 27.9375 L 25.800781 27.9375 L 25.800781 29.40625 L 5.953125 29.40625 Z M 5.953125 27.9375 "/>
<path style=" stroke:none;fill-rule:nonzero;fill:url(#radial0);" d="M 25.800781 28.035156 L 28.445312 28.035156 L 28.445312 26.710938 L 25.800781 26.710938 Z M 25.800781 28.035156 "/>
<path style=" stroke:none;fill-rule:nonzero;fill:url(#radial1);" d="M 5.953125 28.035156 L 3.308594 28.035156 L 3.308594 29.355469 L 5.953125 29.355469 Z M 5.953125 28.035156 "/>
<path style=" stroke:none;fill-rule:nonzero;fill:url(#radial2);" d="M 5.953125 28.035156 L 3.308594 28.035156 L 3.308594 26.710938 L 5.953125 26.710938 Z M 5.953125 28.035156 "/>
<path style=" stroke:none;fill-rule:nonzero;fill:url(#radial3);" d="M 25.800781 28.035156 L 28.445312 28.035156 L 28.445312 29.355469 L 25.800781 29.355469 Z M 25.800781 28.035156 "/>
<path style=" stroke:none;fill-rule:nonzero;fill:url(#linear1);" d="M 4.628906 2.894531 L 27.121094 2.894531 C 27.851562 2.894531 28.445312 3.488281 28.445312 4.21875 L 28.445312 26.710938 C 28.445312 27.441406 27.851562 28.035156 27.121094 28.035156 L 4.628906 28.035156 C 3.898438 28.035156 3.308594 27.441406 3.308594 26.710938 L 3.308594 4.21875 C 3.308594 3.488281 3.898438 2.894531 4.628906 2.894531 Z M 4.628906 2.894531 "/>
<path style=" stroke:none;fill-rule:nonzero;fill:rgb(90.196079%,90.196079%,90.196079%);fill-opacity:0.392157;" d="M 4.628906 2.894531 C 3.898438 2.894531 3.308594 3.484375 3.308594 4.21875 L 3.308594 4.382812 C 3.308594 3.652344 3.898438 3.058594 4.628906 3.0625 L 27.121094 3.0625 C 27.855469 3.058594 28.445312 3.652344 28.445312 4.382812 L 28.445312 4.21875 C 28.445312 3.484375 27.855469 2.894531 27.121094 2.894531 Z M 4.628906 2.894531 "/>
<path style=" stroke:none;fill-rule:nonzero;fill:rgb(0%,0%,0%);fill-opacity:0.196078;" d="M 4.628906 28.035156 C 3.898438 28.035156 3.308594 27.445312 3.308594 26.710938 L 3.308594 26.546875 C 3.308594 27.277344 3.898438 27.867188 4.628906 27.867188 L 27.121094 27.867188 C 27.855469 27.867188 28.445312 27.277344 28.445312 26.546875 L 28.445312 26.710938 C 28.445312 27.445312 27.855469 28.035156 27.121094 28.035156 Z M 4.628906 28.035156 "/>
<path style="fill:none;stroke-width:3;stroke-linecap:round;stroke-linejoin:miter;stroke:rgb(12.941177%,12.941177%,12.941177%);stroke-opacity:1;stroke-miterlimit:4;" d="M 74.055428 -168.691922 L 433.896065 -168.691922 C 445.582449 -168.691922 455.081542 -159.192829 455.081542 -147.506445 L 455.081542 212.334192 C 455.081542 224.020576 445.582449 233.519669 433.896065 233.519669 L 74.055428 233.519669 C 62.369044 233.519669 52.932445 224.020576 52.932445 212.334192 L 52.932445 -147.506445 C 52.932445 -159.192829 62.369044 -168.691922 74.055428 -168.691922 Z M 74.055428 -168.691922 " transform="matrix(0.062506,0,0,0.062506,0,13.438783)"/>
<path style=" stroke:none;fill-rule:nonzero;fill:rgb(50.588238%,78.039217%,51.764709%);fill-opacity:1;" d="M 9.59375 8.519531 C 9.226562 8.519531 8.929688 8.8125 8.929688 9.179688 L 8.929688 15.464844 C 8.929688 15.832031 9.226562 16.125 9.59375 16.125 C 9.957031 16.125 10.253906 15.832031 10.253906 15.464844 L 10.253906 9.84375 L 15.214844 9.84375 L 15.214844 20.757812 C 15.214844 21.125 15.472656 21.417969 15.792969 21.417969 L 22.160156 21.417969 C 22.527344 21.417969 22.824219 21.125 22.824219 20.757812 C 22.824219 20.390625 22.527344 20.09375 22.160156 20.09375 L 16.539062 20.09375 L 16.539062 9.179688 C 16.539062 8.8125 16.28125 8.519531 15.957031 8.519531 Z M 9.59375 8.519531 "/>
<path style=" stroke:none;fill-rule:nonzero;fill:url(#linear2);" d="M 8.929688 19.101562 C 8.5625 19.101562 8.269531 19.398438 8.269531 19.765625 L 8.269531 20.757812 C 8.269531 21.125 8.5625 21.417969 8.929688 21.417969 L 10.253906 21.417969 C 10.621094 21.417969 10.914062 21.125 10.914062 20.757812 L 10.914062 19.765625 C 10.914062 19.398438 10.621094 19.101562 10.253906 19.101562 L 9.921875 19.101562 L 9.921875 19.433594 C 9.921875 19.617188 9.773438 19.765625 9.59375 19.765625 C 9.410156 19.765625 9.261719 19.617188 9.261719 19.433594 L 9.261719 19.101562 Z M 8.929688 19.101562 "/>
<path style=" stroke:none;fill-rule:nonzero;fill:rgb(40.784314%,62.352943%,21.960784%);fill-opacity:0.995816;" d="M 9.59375 18.277344 C 9.867188 18.277344 10.089844 18.5 10.089844 18.773438 L 10.089844 19.269531 C 10.089844 19.542969 9.867188 19.765625 9.59375 19.765625 C 9.316406 19.765625 9.097656 19.542969 9.097656 19.269531 L 9.097656 18.773438 C 9.097656 18.5 9.316406 18.277344 9.59375 18.277344 Z M 9.59375 18.277344 "/>
<path style=" stroke:none;fill-rule:nonzero;fill:rgb(100%,100%,100%);fill-opacity:0.392157;" d="M 9.59375 18.277344 C 9.316406 18.277344 9.097656 18.496094 9.097656 18.773438 L 9.097656 19.101562 C 9.097656 18.828125 9.316406 18.605469 9.59375 18.605469 C 9.867188 18.605469 10.089844 18.828125 10.089844 19.101562 L 10.089844 18.773438 C 10.089844 18.496094 9.867188 18.277344 9.59375 18.277344 Z M 9.59375 18.277344 "/>
<path style=" stroke:none;fill-rule:nonzero;fill:rgb(100%,100%,100%);fill-opacity:0.392157;" d="M 9.59375 8.519531 C 9.226562 8.519531 8.929688 8.8125 8.929688 9.179688 L 8.929688 9.511719 C 8.929688 9.144531 9.226562 8.851562 9.59375 8.851562 L 15.957031 8.851562 C 16.28125 8.851562 16.539062 9.144531 16.539062 9.511719 L 16.539062 9.179688 C 16.539062 8.8125 16.28125 8.519531 15.957031 8.519531 Z M 16.539062 20.09375 L 16.539062 20.425781 L 22.160156 20.425781 C 22.46875 20.425781 22.730469 20.636719 22.800781 20.921875 C 22.816406 20.871094 22.824219 20.8125 22.824219 20.757812 C 22.824219 20.390625 22.527344 20.09375 22.160156 20.09375 Z M 16.539062 20.09375 "/>
<path style=" stroke:none;fill-rule:nonzero;fill:rgb(0%,0%,0%);fill-opacity:0.235294;" d="M 10.253906 9.84375 L 10.253906 10.339844 L 15.214844 10.339844 L 15.214844 9.84375 Z M 8.929688 15.464844 L 8.929688 15.960938 C 8.929688 16.328125 9.226562 16.621094 9.59375 16.621094 C 9.957031 16.621094 10.253906 16.328125 10.253906 15.960938 L 10.253906 15.464844 C 10.253906 15.832031 9.957031 16.125 9.59375 16.125 C 9.226562 16.125 8.929688 15.832031 8.929688 15.464844 Z M 15.214844 20.757812 L 15.214844 21.253906 C 15.214844 21.621094 15.472656 21.914062 15.792969 21.914062 L 22.160156 21.914062 C 22.527344 21.914062 22.824219 21.621094 22.824219 21.253906 C 22.824219 21.164062 22.804688 21.082031 22.773438 21.003906 C 22.675781 21.25 22.441406 21.417969 22.160156 21.417969 L 15.792969 21.417969 C 15.472656 21.417969 15.214844 21.125 15.214844 20.757812 Z M 15.214844 20.757812 "/>
<path style="fill:none;stroke-width:3;stroke-linecap:square;stroke-linejoin:bevel;stroke:rgb(12.941177%,12.941177%,12.941177%);stroke-opacity:1;stroke-miterlimit:4;" d="M 153.485343 -78.700516 C 147.610904 -78.700516 142.861357 -74.013464 142.861357 -68.139025 L 142.861357 32.413873 C 142.861357 38.288312 147.610904 42.975365 153.485343 42.975365 C 159.297288 42.975365 164.046834 38.288312 164.046834 32.413873 L 164.046834 -57.515039 L 243.414255 -57.515039 L 243.414255 117.093287 C 243.414255 122.967726 247.538861 127.654778 252.663372 127.654778 L 354.528644 127.654778 C 360.403083 127.654778 365.15263 122.967726 365.15263 117.093287 C 365.15263 111.218848 360.403083 106.469301 354.528644 106.469301 L 264.599732 106.469301 L 264.599732 -68.139025 C 264.599732 -74.013464 260.475126 -78.700516 255.288121 -78.700516 Z M 153.485343 -78.700516 " transform="matrix(0.062506,0,0,0.062506,0,13.438783)"/>
<path style=" stroke:none;fill-rule:nonzero;fill:rgb(100%,100%,100%);fill-opacity:0.392157;" d="M 8.929688 19.101562 C 8.5625 19.101562 8.269531 19.398438 8.269531 19.765625 L 8.269531 20.09375 C 8.269531 19.730469 8.5625 19.433594 8.929688 19.433594 L 9.261719 19.433594 L 9.261719 19.101562 Z M 9.921875 19.101562 L 9.921875 19.433594 L 10.253906 19.433594 C 10.621094 19.433594 10.914062 19.730469 10.914062 20.09375 L 10.914062 19.765625 C 10.914062 19.398438 10.621094 19.101562 10.253906 19.101562 Z M 9.261719 19.433594 L 9.261719 19.765625 C 9.261719 19.949219 9.410156 20.09375 9.59375 20.09375 C 9.773438 20.09375 9.921875 19.949219 9.921875 19.765625 L 9.921875 19.433594 C 9.921875 19.617188 9.773438 19.765625 9.59375 19.765625 C 9.410156 19.765625 9.261719 19.617188 9.261719 19.433594 Z M 9.261719 19.433594 "/>
<path style=" stroke:none;fill-rule:nonzero;fill:rgb(0%,0%,0%);fill-opacity:0.235294;" d="M 8.269531 20.757812 L 8.269531 21.253906 C 8.269531 21.621094 8.5625 21.914062 8.929688 21.914062 L 10.253906 21.914062 C 10.621094 21.914062 10.914062 21.621094 10.914062 21.253906 L 10.914062 20.757812 C 10.914062 21.125 10.621094 21.417969 10.253906 21.417969 L 8.929688 21.417969 C 8.5625 21.417969 8.269531 21.125 8.269531 20.757812 Z M 8.269531 20.757812 "/>
<path style="fill:none;stroke-width:11.338583;stroke-linecap:square;stroke-linejoin:bevel;stroke:rgb(12.941177%,12.941177%,12.941177%);stroke-opacity:1;stroke-miterlimit:4;" d="M 539.948466 1155.007873 C 517.745861 1155.007873 500.031016 1172.958916 500.031016 1195.161521 L 500.031016 1255.155795 C 500.031016 1277.3584 517.745861 1295.073245 539.948466 1295.073245 L 620.019564 1295.073245 C 642.222169 1295.073245 659.937014 1277.3584 659.937014 1255.155795 L 659.937014 1195.161521 C 659.937014 1172.958916 642.222169 1155.007873 620.019564 1155.007873 L 599.94274 1155.007873 L 599.94274 1175.084697 C 599.94274 1186.186 590.967219 1195.161521 580.102114 1195.161521 C 569.000811 1195.161521 560.02529 1186.186 560.02529 1175.084697 L 560.02529 1155.007873 Z M 539.948466 1155.007873 " transform="matrix(0.016538,0,0,0.016538,0,0)"/>
<path style="fill-rule:nonzero;fill:rgb(40.784314%,62.352943%,21.960784%);fill-opacity:0.995816;stroke-width:3;stroke-linecap:square;stroke-linejoin:bevel;stroke:rgb(12.941177%,12.941177%,12.941177%);stroke-opacity:1;stroke-miterlimit:4;" d="M 153.485343 77.409576 C 157.859925 77.409576 161.422085 80.971736 161.422085 85.346318 L 161.422085 93.28306 C 161.422085 97.657643 157.859925 101.219803 153.485343 101.219803 C 149.048267 101.219803 145.548601 97.657643 145.548601 93.28306 L 145.548601 85.346318 C 145.548601 80.971736 149.048267 77.409576 153.485343 77.409576 Z M 153.485343 77.409576 " transform="matrix(0.062506,0,0,0.062506,0,13.438783)"/>
</g>
</svg>
